src/scalable/apps/wine-winefile.svg

<svg width="64" height="64" version="1.1" viewBox="0 0 16.933 16.933" xmlns="http://www.w3.org/2000/svg" xmlns:xlink="http://www.w3.org/1999/xlink">
 <defs>
  <linearGradient id="b">
   <stop offset="0"/>
   <stop stop-opacity="0" offset="1"/>
  </linearGradient>
  <linearGradient id="c" x1="32" x2="32" y1="13" y2="9" gradientTransform="scale(.26458)" gradientUnits="userSpaceOnUse" xlink:href="#b"/>
  <linearGradient id="a" x1="30" x2="57" y1="44" y2="44" gradientUnits="userSpaceOnUse" xlink:href="#b"/>
 </defs>
 <circle cx="8.4665" cy="8.4665" r="6.6145" fill="#3578c7" style="paint-order:stroke markers fill"/>
 <path transform="scale(.26458)" d="m19.398 14a22 22 0 0 0-9.3984 18 22 22 0 0 0 22 22 22 22 0 0 0 22-22 22 22 0 0 0-9.3711-18z" fill="#fff" stroke-width="3.7796" style="paint-order:stroke markers fill"/>
 <path d="m8.4665 1.852a6.6145 6.6145 0 0 0-3.9444 1.3229h7.8976a6.6145 6.6145 0 0 0-3.9532-1.3229z" fill="url(#c)" opacity=".15" style="paint-order:stroke markers fill"/>
 <path d="m8.466 4.2332c-0.29211 6.879e-4 -0.38134 0.27599-0.52916 0.52967l-0.30799 0.52812-5.5525 5.167e-4a7.1436 7.1436 0 0 0-0.75343 3.1749 7.1436 7.1436 0 0 0 7.1436 7.1436 7.1436 7.1436 0 0 0 7.1436-7.1436 7.1436 7.1436 0 0 0-1.3999-4.2332h-5.7432z" fill="#5294e2" style="paint-order:stroke markers fill"/>
 <rect x="9.2599" y="4.762" width="3.969" height=".529" ry=".265" opacity=".25" style="paint-order:stroke markers fill"/>
 <path transform="scale(.26458)" d="m59 32-27 27a27 27 0 0 0 27-27z" fill="url(#a)" opacity=".15" stroke-width="3.7796" style="paint-order:stroke markers fill"/>
 <path d="m6.087 9.441-2e-3 -1.699 1.905-0.284v1.983zm2.22-2.033 2.54-0.406v2.439h-2.54zm2.54 2.381v2.439l-2.54-0.392v-2.047zm-2.857 2.002-1.903-0.286v-1.716h1.903z" fill="#fff"/>
</svg>

<svg width="64" height="64" viewBox="0 0 16.933 16.933" xmlns="http://www.w3.org/2000/svg" xmlns:xlink="http://www.w3.org/1999/xlink"><defs><linearGradient id="a"><stop offset="0"/><stop stop-opacity="0" offset="1"/></linearGradient><linearGradient id="b" x1="32" x2="32" y1="13" y2="9" gradientTransform="scale(.26458)" gradientUnits="userSpaceOnUse" xlink:href="#a"/><linearGradient id="c" x1="30" x2="57" y1="44" y2="44" gradientUnits="userSpaceOnUse" xlink:href="#a"/></defs><circle cx="8.466" cy="8.466" r="6.614" fill="#3578c7" style="paint-order:stroke markers fill"/><path transform="scale(.26458)" d="M19.398 14A22 22 0 0 0 10 32a22 22 0 0 0 22 22 22 22 0 0 0 22-22 22 22 0 0 0-9.371-18z" fill="#fff" style="paint-order:stroke markers fill"/><path d="M8.466 1.852a6.614 6.614 0 0 0-3.944 1.323h7.898a6.614 6.614 0 0 0-3.954-1.323z" fill="url(#b)" opacity=".15" style="paint-order:stroke markers fill"/><path d="M8.466 4.233c-.292 0-.381.276-.53.53l-.307.528H2.076a7.144 7.144 0 0 0-.753 3.175 7.144 7.144 0 0 0 7.144 7.144 7.144 7.144 0 0 0 7.143-7.144 7.144 7.144 0 0 0-1.4-4.233H8.467z" fill="#5294e2" style="paint-order:stroke markers fill"/><rect x="9.26" y="4.762" width="3.969" height=".529" ry=".265" opacity=".25" style="paint-order:stroke markers fill"/><path transform="scale(.26458)" d="M59 32 32 59a27 27 0 0 0 27-27z" fill="url(#c)" opacity=".15" style="paint-order:stroke markers fill"/><path d="m6.087 9.441-.002-1.699 1.905-.284v1.983zm2.22-2.033 2.54-.406v2.439h-2.54zm2.54 2.381v2.439l-2.54-.392V9.789zM7.99 11.791l-1.903-.286V9.789H7.99z" fill="#fff"/></svg>
